assets/Hamster/Flat/hamster_flat.svg

<svg width="32" height="32" viewBox="0 0 32 32" fill="none" xmlns="http://www.w3.org/2000/svg">
<path d="M13.3603 10.6604C13.4111 10.354 13.4375 10.0395 13.4375 9.71875C13.4375 6.56037 10.8771 4 7.71875 4C4.56037 4 2 6.56037 2 9.71875C2 12.7415 4.34517 15.2165 7.31528 15.4235C5.34479 17.8435 4.03125 20.5888 4.03125 22.5156C4.03125 27 8.09375 29.9375 11.0938 29.9375C13.3507 29.9375 14.3641 29.5406 15.0721 29.2633C15.4523 29.1144 15.7444 29 16.0938 29C16.4768 29 16.7773 29.1376 17.1482 29.3073C17.7453 29.5807 18.5248 29.9375 20.125 29.9375C22.9531 29.9375 27.9531 27.8125 27.9531 22.5156C27.9531 20.6185 26.7336 17.8523 24.8303 15.4115C27.7311 15.1352 30 12.6919 30 9.71875C30 6.56037 27.4396 4 24.2812 4C21.1229 4 18.5625 6.56037 18.5625 9.71875C18.5625 10.0021 18.5831 10.2806 18.6229 10.5528C17.795 10.2584 16.9468 10.0938 16.0938 10.0938C15.1891 10.0938 14.2687 10.2987 13.3603 10.6604Z" fill="#F3AD61"/>
<path d="M6.85938 13.875C9.21521 13.875 11.125 11.9652 11.125 9.60938C11.125 7.25354 9.21521 5.34375 6.85938 5.34375C4.50354 5.34375 2.59375 7.25354 2.59375 9.60938C2.59375 11.9652 4.50354 13.875 6.85938 13.875Z" fill="#FF8687"/>
<path d="M25.1094 13.875C27.4652 13.875 29.375 11.9652 29.375 9.60938C29.375 7.25354 27.4652 5.34375 25.1094 5.34375C22.7535 5.34375 20.8438 7.25354 20.8438 9.60938C20.8438 11.9652 22.7535 13.875 25.1094 13.875Z" fill="#FF8687"/>
<path d="M12 17.9688C11.4477 17.9688 11 18.4165 11 18.9687V19.9688C11 20.521 11.4477 20.9688 12 20.9688C12.5523 20.9688 13 20.521 13 19.9688V18.9688C13 18.4165 12.5523 17.9688 12 17.9688Z" fill="#1C1C1C"/>
<path d="M20 17.9688C19.4477 17.9688 19 18.4165 19 18.9687V19.9688C19 20.521 19.4477 20.9688 20 20.9688C20.5523 20.9688 21 20.521 21 19.9688V18.9688C21 18.4165 20.5523 17.9688 20 17.9688Z" fill="#1C1C1C"/>
<path d="M17.5859 22.6406C17.5859 23.1281 16.6562 24.3438 16.0078 24.3438C15.3141 24.3438 14.4141 23.2344 14.4141 22.6406C14.4141 22.0469 15.1172 21.9922 16.0078 21.9922C16.8984 21.9922 17.5859 22.0312 17.5859 22.6406Z" fill="#F70A8D"/>
<path d="M16.0005 26.395C15.6041 26.9495 15.0501 27.223 14.4648 27.1824C13.6329 27.1246 12.9351 26.4111 13.0029 25.4492C13.0223 25.1738 13.2613 24.9662 13.5368 24.9856C13.8123 25.005 14.0198 25.244 14.0004 25.5195C13.9724 25.9171 14.2405 26.1644 14.534 26.1848C14.7812 26.2019 15.2584 26.0436 15.491 25.1131C15.5498 24.8777 15.7665 24.7234 16 24.7348C16.2335 24.7234 16.4502 24.8777 16.5091 25.1131C16.7414 26.0428 17.217 26.196 17.4625 26.1772C17.7576 26.1547 18.0277 25.9028 17.9996 25.5039C17.9802 25.2284 18.1877 24.9894 18.4632 24.97C18.7387 24.9506 18.9777 25.1582 18.9971 25.4336C19.0648 26.3941 18.3691 27.1109 17.5387 27.1743C16.9524 27.2191 16.3974 26.9482 16.0005 26.395Z" fill="#1C1C1C"/>
</svg>

<svg xmlns="http://www.w3.org/2000/svg" width="32" height="32" fill="none"><path fill="#F3AD61" d="M13.36 10.66a5.719 5.719 0 1 0-6.045 4.763c-1.97 2.42-3.284 5.166-3.284 7.093 0 4.484 4.063 7.422 7.063 7.422 2.257 0 3.27-.397 3.978-.675.38-.149.672-.263 1.022-.263.383 0 .683.138 1.054.307.597.274 1.377.63 2.977.63 2.828 0 7.828-2.125 7.828-7.421 0-1.897-1.22-4.664-3.123-7.104a5.72 5.72 0 1 0-6.207-4.86 7.542 7.542 0 0 0-2.53-.458c-.904 0-1.824.205-2.733.566Z"/><path fill="#FF8687" d="M6.86 13.875a4.266 4.266 0 1 0 0-8.531 4.266 4.266 0 0 0 0 8.531ZM25.11 13.875a4.266 4.266 0 1 0 0-8.531 4.266 4.266 0 0 0 0 8.531Z"/><path fill="#1C1C1C" d="M12 17.969a1 1 0 0 0-1 1v1a1 1 0 0 0 2 0v-1a1 1 0 0 0-1-1ZM20 17.969a1 1 0 0 0-1 1v1a1 1 0 0 0 2 0v-1a1 1 0 0 0-1-1Z"/><path fill="#F70A8D" d="M17.586 22.64c0 .488-.93 1.704-1.578 1.704-.694 0-1.594-1.11-1.594-1.703 0-.594.703-.649 1.594-.649.89 0 1.578.04 1.578.649Z"/><path fill="#1C1C1C" d="M16 26.395c-.396.555-.95.828-1.535.787-.832-.057-1.53-.77-1.462-1.733a.5.5 0 0 1 .997.07c-.028.398.24.645.534.666.247.017.724-.141.957-1.072a.5.5 0 0 1 .509-.378.5.5 0 0 1 .51.378c.231.93.707 1.083.952 1.064.296-.022.566-.274.538-.673a.5.5 0 1 1 .997-.07c.068.96-.628 1.677-1.458 1.74-.587.045-1.142-.226-1.539-.779Z"/></svg>
